X:1
T:Title
%%score { ( 1 3 ) | 2 }
L:1/8
M:4/4
K:Db
V:1 treble nm="Grand Piano"
V:3 treble 
V:2 bass 
V:1
 z4 z2[Q:1/4=110] [FA]2 | [_F=G]2 [=FA]2 [Fd]2 [DF]2 | [GB]2 [FA]4 F2 | _F2 =F2 [CA]3 [CE] | %4
 F6 F2 | F2 E2 =G2 [GB]2 | [=Gd]2 c4 c2 | _c2 =c2 d3 =G | A6 [FA]2 | [_F=G]2 [=FA]2 [Fd]2 [DF]2 | %10
 [GB]2 [FA]4 F2 | _F2 =F2 [CA]3 [CE] | [DF]6 [FA]2 | B2 B2 c2 d2 | d2 A4 B2 | A2 F2 [CF]3 [CE] | %16
[M:3/4] D6 |[M:1/4] F2 |[M:4/4] A8 | [DA]2 [CA]4 EB | A8 | [FA]6 [FA]2 | B2 B2 d3 c | %23
 [Fd]2 [DFA]4 [A,DF]2 | [=G,DF]2 [G,DF]2 [G,DE]3 [G,D] | [A,CE]6 F2 | A8 | [DA]2 [CA]4 EB | A8 | %29
 [FA]6 [FA]2 | B2 B2 d3 c | [Fd]2 [DFA]4 [B,EG]2 | [DF]2 [DFA]2 [A,CF]3[K:bass] [G,CE] | %33
[M:3/4] [F,D]6 |] %34
V:2
 z4 z2 [D,A,]2 | [D,B,]2 [D,A,]2 [D,A,]2 [D,A,]2 | [D,D]2 [D,D]4 [D,A,D]2 | %3
 [D,=G,D]2 [D,A,D]2 [A,,A,]3 [A,,A,] | [D,A,D]6 [D,A,D]2 | [E,=G,D]2 [E,G,D]2 [E,B,E]2 [E,E]2 | %6
 [E,E]2[K:treble] [A,EA]4 [A,E]2 | [A,=D]2 [A,E]2 [E,=G,E]3 [E,_DE] | [A,CE]6 [D,D]2 | %9
 [D,B,]2 [D,A,]2 [D,A,]2 [D,A,]2 | [D,D]2 [D,D]4 [D,A,D]2 | [D,=G,D]2 [D,A,D]2 [A,,A,]3 [A,,A,] | %12
 [D,A,]6 [D,D]2 | [G,DG]2 [G,DG]2 [G,CG]2 [G,B,G]2 | [A,F]2 [A,DF]4 [G,DG]2 | %15
 [A,DF]2[K:bass] [A,D]2 [A,,A,]3 [A,,G,] |[M:3/4] [D,F,]6 |[M:1/4] z2 | %18
[M:4/4] z2 [D,A,]2 [D,G,]3 [D,F,D] | [A,,F,]2 [A,,E,]4 z2 | z2 [A,,E,]2 [A,,F,]3 [A,,G,] | %21
 [D,A,]6 [D,D]2 | [G,DG]2 [G,DG]2 [G,B,G]3 [G,B,G] | [D,A,]2 D,4 D,2 | B,,2 B,,2 E,3 E, | A,,6 z2 | %26
 z2 [D,A,]2 [D,G,]3 [D,F,D] | [A,,F,]2 [A,,E,]4 z2 | z2 [A,,E,]2 [A,,F,]3 [A,,G,] | %29
 [D,A,]6 [D,D]2 | [G,DG]2 [G,DG]2 [G,B,G]3 [G,B,G] | [D,A,]2 D,4 G,2 | A,2 A,2 A,,3 A,, | %33
[M:3/4] D,6 |] %34
V:3
 x8 | x8 | x8 | x8 | x8 | x8 | x8 | x8 | x8 | x8 | x8 | x8 | x8 | x8 | x8 | x8 |[M:3/4] x6 | %17
[M:1/4] x2 |[M:4/4] z2 F2 E3 A | x8 | z2 C2 D3 [EA] | x8 | x8 | x8 | x8 | x8 | z2 F2 E3 A | x8 | %28
 z2 C2 D3 [EA] | x8 | x8 | x8 | x7[K:bass] x |[M:3/4] x6 |] %34

